src/assets/icons/icon-instagram.svg

<svg width="20" height="20" viewBox="0 0 20 20" fill="none" xmlns="http://www.w3.org/2000/svg">
<path d="M10 1.802C12.67 1.802 12.987 1.812 14.042 1.861C16.752 1.984 18.017 3.27 18.141 5.96C18.189 7.014 18.198 7.33 18.198 10C18.198 12.672 18.188 12.988 18.141 14.042C18.017 16.729 16.754 18.017 14.041 18.141C12.987 18.189 12.671 18.199 10 18.199C7.33 18.199 7.013 18.189 5.96 18.141C3.243 18.017 1.983 16.725 1.86 14.041C1.812 12.987 1.802 12.671 1.802 10C1.802 7.33 1.812 7.014 1.86 5.96C1.984 3.27 3.247 1.983 5.96 1.86C7.014 1.812 7.33 1.802 10 1.802V1.802ZM10 0C7.284 0 6.944 0.012 5.878 0.06C2.246 0.227 0.228 2.242 0.06 5.877C0.01 6.944 0 7.284 0 10C0 12.716 0.012 13.057 0.06 14.123C0.227 17.755 2.242 19.773 5.877 19.94C6.944 19.988 7.284 20 10 20C12.716 20 13.057 19.988 14.123 19.94C17.752 19.773 19.775 17.758 19.939 14.123C19.989 13.057 20 12.716 20 10C20 7.284 19.988 6.944 19.94 5.878C19.777 2.249 17.76 0.228 14.124 0.06C13.057 0.01 12.716 0 10 0ZM10 4.865C8.63811 4.865 7.33201 5.40601 6.36901 6.36901C5.40601 7.33201 4.865 8.63811 4.865 10C4.865 11.3619 5.40601 12.668 6.36901 13.631C7.33201 14.594 8.63811 15.135 10 15.135C11.3619 15.135 12.668 14.594 13.631 13.631C14.594 12.668 15.135 11.3619 15.135 10C15.135 8.63811 14.594 7.33201 13.631 6.36901C12.668 5.40601 11.3619 4.865 10 4.865V4.865ZM10 13.333C9.11603 13.333 8.26827 12.9818 7.64321 12.3568C7.01815 11.7317 6.667 10.884 6.667 10C6.667 9.11603 7.01815 8.26827 7.64321 7.64321C8.26827 7.01815 9.11603 6.667 10 6.667C10.884 6.667 11.7317 7.01815 12.3568 7.64321C12.9818 8.26827 13.333 9.11603 13.333 10C13.333 10.884 12.9818 11.7317 12.3568 12.3568C11.7317 12.9818 10.884 13.333 10 13.333ZM15.338 3.463C15.0197 3.463 14.7145 3.58943 14.4895 3.81447C14.2644 4.03952 14.138 4.34474 14.138 4.663C14.138 4.98126 14.2644 5.28648 14.4895 5.51153C14.7145 5.73657 15.0197 5.863 15.338 5.863C15.6563 5.863 15.9615 5.73657 16.1865 5.51153C16.4116 5.28648 16.538 4.98126 16.538 4.663C16.538 4.34474 16.4116 4.03952 16.1865 3.81447C15.9615 3.58943 15.6563 3.463 15.338 3.463V3.463Z" fill="#ADB5BD"/>
</svg>

<svg xmlns="http://www.w3.org/2000/svg" width="20" height="20"><defs><linearGradient id="a" x1="100%" x2="0%" y1="0%" y2="100%"><stop offset="0%" stop-color="#DF4896"/><stop offset="50.913%" stop-color="#EE877E"/><stop offset="100%" stop-color="#FDC366"/></linearGradient></defs><path fill="url(#a)" d="M10 1.802c2.67 0 2.987.01 4.042.059 2.71.123 3.975 1.409 4.099 4.099.048 1.054.057 1.37.057 4.04 0 2.672-.01 2.988-.057 4.042-.124 2.687-1.387 3.975-4.1 4.099-1.054.048-1.37.058-4.041.058-2.67 0-2.987-.01-4.04-.058-2.717-.124-3.977-1.416-4.1-4.1-.048-1.054-.058-1.37-.058-4.041 0-2.67.01-2.986.058-4.04.124-2.69 1.387-3.977 4.1-4.1 1.054-.048 1.37-.058 4.04-.058zM10 0C7.284 0 6.944.012 5.878.06 2.246.227.228 2.242.06 5.877.01 6.944 0 7.284 0 10s.012 3.057.06 4.123c.167 3.632 2.182 5.65 5.817 5.817 1.067.048 1.407.06 4.123.06s3.057-.012 4.123-.06c3.629-.167 5.652-2.182 5.816-5.817.05-1.066.061-1.407.061-4.123s-.012-3.056-.06-4.122C19.777 2.249 17.76.228 14.124.06 13.057.01 12.716 0 10 0zm0 4.865a5.135 5.135 0 100 10.27 5.135 5.135 0 000-10.27zm0 8.468a3.333 3.333 0 110-6.666 3.333 3.333 0 010 6.666zm5.338-9.87a1.2 1.2 0 100 2.4 1.2 1.2 0 000-2.4z"/></svg>
